!!!COM: Palestrina, Giovanni Perluigi da
!!!OPR: Octavi toni
!!!OTL: Kyrie
**kern	**kern	**kern	**kern	**kern	**kern
*Ibass	*Itenor	*Itenor	*Icalto	*Icant	*Icant
!Bassus	!Tenor 2	!Tenor 1	!Altus	!Cantus 2	!Cantus 1
*clefF4	*clefGv2	*clefGv2	*clefG2	*clefG2	*clefG2
*k[]	*k[]	*k[]	*k[]	*k[]	*k[]
*G:mix	*G:mix	*G:mix	*G:mix	*G:mix	*G:mix
*M4/2	*M4/2	*M4/2	*M4/2	*M4/2	*M4/2
=1	=1	=1	=1	=1	=1
1r	0r	0d	0r	0r	0r
[1G	.	.	.	.	.
=2	=2	=2	=2	=2	=2
1G]	0r	1B	0r	0r	0r
1E	.	2.c	.	.	.
.	.	4B	.	.	.
=3	=3	=3	=3	=3	=3
1F	0r	2A	0r	0r	0r
.	.	1d	.	.	.
1E	.	.	.	.	.
.	.	2c	.	.	.
=4	=4	=4	=4	=4	=4
1D	0d	2B	1r	0r	0r
.	.	2A	.	.	.
[1G	.	2.B	[1g	.	.
.	.	4c	.	.	.
=5	=5	=5	=5	=5	=5
1G]	1B	2d	1g]	0r	0r
.	.	1G	.	.	.
1C	2.c	.	1e	.	.
.	.	[2A	.	.	.
.	4B	.	.	.	.
=6	=6	=6	=6	=6	=6
1D	2A	4A]	1f	0r	0r
.	.	4F	.	.	.
.	1d	2A	.	.	.
2.E	.	[1G	1e	.	.
.	[2c	.	.	.	.
4F	.	.	.	.	.
=7	=7	=7	=7	=7	=7
1G	2c]	1G]	2d	0r	0dd
.	2B	.	1g	.	.
1D	1A	2r	.	.	.
.	.	2A	2f#	.	.
=8	=8	=8	=8	=8	=8
1GG	1G	2B	2g	0g	1b
.	.	2d	2d	.	.
1r	1r	2c	2e	.	2cc
.	.	2G	[2d	.	2b
=9	=9	=9	=9	=9	=9
0AA	1r	1A	2d]	0e	0a
.	.	.	4c#	.	.
.	.	.	4B	.	.
.	1A	2r	1c#	.	.
.	.	[2A	.	.	.
=10	=10	=10	=10	=10	=10
1D	2F	2A]	0d	0f	1a
.	2A	1F	.	.	.
1BB-	2.B-	.	.	.	1dd
.	.	2D	.	.	.
.	4A	.	.	.	.
=11	=11	=11	=11	=11	=11
1C	2G	2.E	2.g	0e	2.cc
.	4C	.	.	.	.
.	4D	4F	4f	.	8b
.	.	.	.	.	8a
1C	4E	1G	4e	.	2g
.	4F	.	4d	.	.
.	[2G	.	2c	.	[2cc
=12	=12	=12	=12	=12	=12
1GG	4G]	2r	2d	0d	2cc]
.	4A	.	.	.	.
.	4B	2G	2G	.	2b
.	4c	.	.	.	.
1r	1d	2F#	2A	.	2a
.	.	2G	2B	.	4g
.	.	.	.	.	4f
=13	=13	=13	=13	=13	=13
0r	2r	4C	1c	0g	1e
.	.	4D	.	.	.
.	2c	4E	.	.	.
.	.	4F	.	.	.
.	2B	2G	2r	.	2d
.	2c	[2c	2e	.	2c
=14	=14	=14	=14	=14	=14
1r	1G	2c]	2d	0g	1d
.	.	2B	2.g	.	.
2r	4C	2c	.	.	2e
.	4D	.	4f	.	.
2C	4E	2C	2e	.	[2g
.	4F	.	.	.	.
=15	=15	=15	=15	=15	=15
2BB	1G	2D	2d	0r	4g]
.	.	.	.	.	4f
2C	.	2E	1c	.	2e
1GG	1r	1G	.	.	1d
.	.	.	2B	.	.
=16	=16	=16	=16	=16	=16
1C	2r	1G	2c	0g	2e
.	2c	.	2e	.	2c
1r	2B	1r	2d	.	2d
.	2c	.	[2c	.	2e
=17	=17	=17	=17	=17	=17
0r	2.F	2r	2c]	0a	1f
.	.	2d	2f	.	.
.	4G	.	.	.	.
.	2A	2c#	2e	.	2r
.	2D	2d	2f	.	2a
=18	=18	=18	=18	=18	=18
2r	2G	2B	2d	0g	2b
2C	2c	2G	2e	.	2cc
2G	2B	1G	2d	.	2dd
2C	2c	.	2e	.	4cc
.	.	.	.	.	4b
=19	=19	=19	=19	=19	=19
2.D	2.F	2r	1A	0f	0a
.	.	2d	.	.	.
4E	4G	.	.	.	.
2F	2A	2c	1r	.	.
2D	2F	2d	.	.	.
=20	=20	=20	=20	=20	=20
2E	1.G	2B	2r	0e	0g
4C	.	2c	2c	.	.
4D	.	.	.	.	.
4E	.	1G	2B	.	.
4F	.	.	.	.	.
[2G	2C	.	2c	.	.
=21	=21	=21	=21	=21	=21
2G]	1D	0r	1A	0d	2.dd
2F#	.	.	.	.	.
.	.	.	.	.	4cc
1G	[1G	.	1B	.	4b
.	.	.	.	.	4a
.	.	.	.	.	4g
.	.	.	.	.	4f
=22	=22	=22	=22	=22	=22
1C	1G]	2r	1c	0g	4e
.	.	.	.	.	4d
.	.	2c	.	.	2e
1r	2r	2B	2d	.	2d
.	2c	2c	2e	.	2c
=23	=23	=23	=23	=23	=23
2r	2B	2G	2d	0g	2r
2C	2c	2.E	1e	.	2cc
2E	1G	.	.	.	2b
.	.	4F	.	.	.
2C	.	4G	2e	.	2cc
.	.	4E	.	.	.
=24	=24	=24	=24	=24	=24
0D	2r	0A	1.d	0f#	1a
.	2d	.	.	.	.
.	2A	.	.	.	2.dd
.	[2d	.	2A	.	.
.	.	.	.	.	4cc
=25	=25	=25	=25	=25	=25
0GG	4d]	1G	2B	0g	4b
.	4c	.	.	.	4a
.	4B	.	1G	.	2.b
.	4A	.	.	.	.
.	1B	1d	.	.	.
.	.	.	.	.	4a
.	.	.	[2g	.	4g
.	.	.	.	.	4f
=26	=26	=26	=26	=26	=26
0C	1G	2.c	4g]	[0g	4e
.	.	.	4f	.	4d
.	.	.	4e	.	2c
.	.	8B	4d	.	.
.	.	8A	.	.	.
.	2.E	2G	1e	.	1cc
.	.	2A	.	.	.
.	4F	.	.	.	.
=27	=27	=27	=27	=27	=27
0GG	0G	0B	0d	0g]	0b
=28	=28	=28	=28	=28	=28
0r	1F	0r	1r	0r	0r
.	[1A	.	1c	.	.
=29	=29	=29	=29	=29	=29
0r	2A]	0r	1.e	0r	0r
.	2G	.	.	.	.
.	2A	.	.	.	.
.	2B	.	2d	.	.
=30	=30	=30	=30	=30	=30
1C	1.c	0r	2.e	0r	0r
.	.	.	4f	.	.
[1E	.	.	[1g	.	.
.	2B	.	.	.	.
=31	=31	=31	=31	=31	=31
2E]	2c	0r	2g]	0r	0r
2D	2.d	.	2f	.	.
2E	.	.	1e	.	.
.	4c	.	.	.	.
2F	[2c	.	.	.	.
=32	=32	=32	=32	=32	=32
1G	2c]	0r	0d	0r	1r
.	2B	.	.	.	.
2.D	2A	.	.	.	1f
.	[2F	.	.	.	.
4E	.	.	.	.	.
=33	=33	=33	=33	=33	=33
2.F	4F]	0r	2.c	0r	1.a
.	4G	.	.	.	.
.	4A	.	.	.	.
4E	4B	.	4d	.	.
2C	2c	.	1e	.	.
2E	2B	.	.	.	2g
=34	=34	=34	=34	=34	=34
1D	1d	1F	1f	0r	2a
.	.	.	.	.	2b
1AA	2c	[1A	[1e	.	1cc
.	2A	.	.	.	.
=35	=35	=35	=35	=35	=35
1E	2.B	2A]	1e]	0r	1b
.	.	2G	.	.	.
.	4c	.	.	.	.
2F	4d	2A	2r	.	2a
.	4c	.	.	.	.
2G	4B	2B	2d	.	[2g
.	4A	.	.	.	.
=36	=36	=36	=36	=36	=36
2E	4G	[0c	2e	0r	2g]
.	4E	.	.	.	.
2F	2A	.	2.c	.	2.f
1C	1G	.	.	.	.
.	.	.	4B	.	8e
.	.	.	.	.	8d
.	.	.	2G	.	2e
=37	=37	=37	=37	=37	=37
1F	1F	1c]	2A	1f	4f
.	.	.	.	.	4g
.	.	.	1c	.	4a
.	.	.	.	.	4b
1r	1r	1A	.	1a	1cc
.	.	.	[2e	.	.
=38	=38	=38	=38	=38	=38
0r	1r	2c	2e]	1g	0r
.	.	2B	2d	.	.
.	2r	2c	2e	1a	.
.	[2d	2d	2f#	.	.
=39	=39	=39	=39	=39	=39
2r	2d]	1G	1g	1b	2r
2G	2e	.	.	.	2g
2A	2c	1r	1r	1cc	2e
2F	2A	.	.	.	[2a
=40	=40	=40	=40	=40	=40
1G	2.B	2r	0d	1b	4a]
.	.	.	.	.	4g
.	.	2G	.	.	2g
.	4c	.	.	.	.
2D	4d	2A	.	1a	2f
.	4A	.	.	.	.
2F	[2d	2F	.	.	2d
=41	=41	=41	=41	=41	=41
1E	4d]	1G	1e	1g	2r
.	4c	.	.	.	.
.	4c	.	.	.	2g
.	4B	.	.	.	.
1D	1d	2r	2.A	1a	4f
.	.	.	.	.	4e
.	.	2d	.	.	4f
.	.	.	4B	.	4g
=42	=42	=42	=42	=42	=42
0r	1A	2e	4c	1a	4a
.	.	.	4d	.	4b
.	.	2c	2e	.	2cc
.	2r	1d	2.f	1r	2a
.	2d	.	.	.	[2b-
.	.	.	4e	.	.
=43	=43	=43	=43	=43	=43
0r	2e	2A	2c	0r	4b-]
.	.	.	.	.	4a
.	2c	2c	2e	.	1a
.	[1d	1B	2d	.	.
.	.	.	2G	.	2g
=44	=44	=44	=44	=44	=44
1D	1d]	1A	2r	1a	1f
.	.	.	2d	.	.
2E	1G	1r	2B	1g	1e
2C	.	.	2c	.	.
=45	=45	=45	=45	=45	=45
1D	0r	2r	1A	1f	4d
.	.	.	.	.	4e
.	.	2d	.	.	4f
.	.	.	.	.	4g
2AA	.	2e	1A	1e	[1a
2A	.	2c	.	.	.
=46	=46	=46	=46	=46	=46
2D	1A	1d	2r	1f	1a]
2F	.	.	2d	.	.
1E	2B	1G	2e	1g	1r
.	2G	.	2c	.	.
=47	=47	=47	=47	=47	=47
1D	1A	1r	1.d	1f#	2r
.	.	.	.	.	2a
1GG	1G	1d	.	1g	2b
.	.	.	2B	.	2dd
=48	=48	=48	=48	=48	=48
1C	2.E	1e	2.c	[0g	2cc
.	.	.	.	.	2.ee
.	4F	.	4d	.	.
1C	[1G	1c	1e	.	.
.	.	.	.	.	4dd
.	.	.	.	.	[2cc
=49	=49	=49	=49	=49	=49
0GG	0G]	0d	2d	1g_	2cc]
.	.	.	2.g	.	4b
.	.	.	.	.	4a
.	.	.	.	1g_	1b
.	.	.	4f	.	.
.	.	.	2d	.	.
=50	=50	=50	=50	=50	=50
0C	0E	0c	0e	0g]	0cc
=51	=51	=51	=51	=51	=51
0r	0r	0r	2r	0r	1g
.	.	.	2g	.	.
.	.	.	2e	.	1cc
.	.	.	2f	.	.
=52	=52	=52	=52	=52	=52
2r	0r	1G	1d	0r	1b
2G	.	.	.	.	.
2E	.	1c	2e	.	1cc
2F	.	.	2A	.	.
=53	=53	=53	=53	=53	=53
1D	1r	1B	1f	0r	1dd
[1C	1G	2.c	[1e	.	[1g
.	.	4d	.	.	.
=54	=54	=54	=54	=54	=54
1C]	1c	1e	2e]	1r	1g]
.	.	.	2c	.	.
1r	2B	2d	1r	1g	2r
.	[2c	2e	.	.	2g
=55	=55	=55	=55	=55	=55
1r	2c]	1c	1r	1cc	2e
.	2F	.	.	.	2f
2r	1G	1r	1g	1b	1d
2G	.	.	.	.	.
=56	=56	=56	=56	=56	=56
2A	0r	0r	2e	1cc	2.a
2F	.	.	2f	.	.
.	.	.	.	.	4g
[1B-	.	.	1d	1dd	4f
.	.	.	.	.	4e
.	.	.	.	.	2f
=57	=57	=57	=57	=57	=57
1B-]	1G	0r	2r	1dd	1d
.	.	.	2g	.	.
1A	2A	.	2e	1cc	2r
.	2F	.	2f	.	2a
=58	=58	=58	=58	=58	=58
0r	0B-	2r	0d	1dd	2g
.	.	2d	.	.	2f
.	.	2G	.	1dd	1g
.	.	[2d	.	.	.
=59	=59	=59	=59	=59	=59
1r	2.A	2d]	1e	0r	0a
.	.	2c	.	.	.
.	4G	.	.	.	.
1D	4F	2.d	2A	.	.
.	4D	.	.	.	.
.	[2A	.	[2d	.	.
.	.	4c	.	.	.
=60	=60	=60	=60	=60	=60
1E	4A]	2B	2d]	0r	1r
.	4G	.	.	.	.
.	1G	2G	2c	.	.
1D	.	2.A	1d	.	1dd
.	2F	.	.	.	.
.	.	4B	.	.	.
=61	=61	=61	=61	=61	=61
1C	1E	1c	0G	1r	1ee
1BB	[1G	4d	.	1dd	1dd
.	.	4c	.	.	.
.	.	4B	.	.	.
.	.	4A	.	.	.
=62	=62	=62	=62	=62	=62
1C	0G]	2G	1r	1ee	1cc
.	.	2C	.	.	.
1GG	.	2r	1g	1dd	1b
.	.	2D	.	.	.
=63	=63	=63	=63	=63	=63
0r	2r	2F	1a	1cc	4a
.	.	.	.	.	4g
.	2A	2F	.	.	4f
.	.	.	.	.	4e
.	2B	1G	1g	1b	2d
.	2B	.	.	.	2dd
=64	=64	=64	=64	=64	=64
1D	1d	1A	1f	1a	2dd
.	.	.	.	.	2dd
2E	1G	2r	1e	1g	2.b
2E	.	[2G	.	.	.
.	.	.	.	.	4cc
=65	=65	=65	=65	=65	=65
1G	1r	4G]	1.d	1g	1b
.	.	4G	.	.	.
.	.	2G	.	.	.
1D	1d	1A	.	1f#	1a
.	.	.	2A	.	.
=66	=66	=66	=66	=66	=66
1C	1e	2.E	1c	1g	0r
.	.	4F	.	.	.
1GG	1d	2G	1B	1g	.
.	.	2d	.	.	.
=67	=67	=67	=67	=67	=67
4C	1c	1e	1r	0r	1g
4D	.	.	.	.	.
4E	.	.	.	.	.
4F	.	.	.	.	.
1G	1B	2d	1d	.	1g
.	.	2G	.	.	.
=68	=68	=68	=68	=68	=68
1D	1A	2A	1d	0r	1f
.	.	2D	.	.	.
2r	1r	1A	1c	.	1e
2AA	.	.	.	.	.
=69	=69	=69	=69	=69	=69
2BB	1d	1D	1B	0r	2d
2GG	.	.	.	.	1g
1D	1d	2r	1A	.	.
.	.	2D	.	.	2f
=70	=70	=70	=70	=70	=70
0r	1c	2E	1G	1g	1e
.	.	2C	.	.	.
.	1B	1G	2r	1g	2d
.	.	.	2G	.	2dd
=71	=71	=71	=71	=71	=71
2r	1A	2D	2A	1f	2dd
2D	.	1d	2F	.	2dd
2E	1r	.	1G	1e	2b
2C	.	[2c	.	.	2cc
=72	=72	=72	=72	=72	=72
1G	2r	2c]	4G	1d	0dd
.	.	.	4A	.	.
.	1d	4B	4B	.	.
.	.	4A	4c	.	.
2G	.	4B	2d	1g	.
.	.	4A	.	.	.
2GG	2d	4G	2B	.	.
.	.	4F	.	.	.
=73	=73	=73	=73	=73	=73
2C	2c	4E	2e	1g	1r
.	.	4F	.	.	.
2GG	2B	2G	2d	.	.
1D	1A	2A	1d	1f#	1dd
.	.	2D	.	.	.
=74	=74	=74	=74	=74	=74
1GG	[0G	2r	1B	[0g	1dd
.	.	2D	.	.	.
2.C	.	2E	1c	.	1cc
.	.	2C	.	.	.
4D	.	.	.	.	.
=75	=75	=75	=75	=75	=75
4E	1G_	2.G	2r	1g_	1b
4F	.	.	.	.	.
2G	.	.	2d	.	.
.	.	4F	.	.	.
[1C	1G_	2.E	2e	1g_	2.cc
.	.	.	2c	.	.
.	.	4D	.	.	4dd
=76	=76	=76	=76	=76	=76
2C]	0G]	2C	2.g	0g]	2ee
2BB	.	2D	.	.	2dd
.	.	.	4f	.	.
1C	.	2.E	1e	.	1cc
.	.	4F	.	.	.
=77	=77	=77	=77	=77	=77
[0GG	[0G	2.G	[0d	[0g	[0b
.	.	4A	.	.	.
.	.	[1B	.	.	.
=78	=78	=78	=78	=78	=78
1GG]	1G]	1B]	1d]	1g]	1b]
==	==	==	==	==	==
*-	*-	*-	*-	*-	*-
!!!CDT: 1525/^1526/-1594/2/2
!!!OCY: Italia
!!!AGN: Mass (Tenor)
!!!AST: renaissance, vocal
!!!ASW: Hymn
!!!PWK: Masses, Book 11
!!!RNB: Cadence finals: A,C
!!!YOR: Le Opere Complete, v. 28, p. 114
!!!YOO: Rome, Italy: Fratelli Scalera
!!!END: 1992//
!!!EED: John Miller
!!!YEC: Copyright 2000, John Miller
!!!YEN: United States of America
!!!YEM: Rights to all derivative electronic formats reserved.
!!!YEM: Refer to licensing agreement for further details.
!!!YEM: This file must be accompanied by the licensing agreement.
!!!YEM: A copy of the licensing agreement may be found at http://www.music-cog.ohio-state.edu/HumdrumDatabases/Palestrina/license.txt
!!!EMD: converted to Humdrum by Bret Aarden
